X: 454
T: Campbell's Farewell to Red Gap
B: jims roots
M:2/4
L:1/8
R: march
Q: 1/4=100
K:AMix
V:1 
%N: The "Redcastle" title is sometimes used for the 32-bar (AA+B1+B2) form, with
%N: "Red Gap" for the 3-part version that's often (ABAC)xN+A, with or without repeats.
%P: ABAC(A)
%N: Scots Guard
%F:http://john-chambers.us/~jc/music/abc/march0/Campbells_Farewell_to_Redcastle-A-64-4.abc	 2020-02-29 033057 UT
e | "A"A>B cd | ea e>d | cA AB/c/ |"G"dd/B/ G>B | "A"A>B cd | ea e>d | "G"cB/A/ GB | "A"A3 :|
g/f/ | "A"ea ag/f/ | ea e>d | cA AB/c/ |"G"dd/B/ Gg/f/| "A"ea ag/f/ | ea e>d | "G"cB/A/ GB | "A"A3 ||
g/f/ | "A"ea ag/f/ | ea e>d | cA AB/c/ |"G"dd/B/ G>B | "A"A>B cd | ea e>d | "G"cB/A/ GB | "A"A3 ||
|: g/f/ | "A"ee ef | g2 fe | "G"dB GB | dB dg/f/ | "A"ee ef | g2 fe | "G"dB gB | "A"BA A3 :|
% abcbook-tune_id 6298c245cab95adde37d4b08


% abcbook-boost 0
% abcbook-tablature 
% abcbook-transpose 
% abcbook-lastupdated 1654178373619
% abcbook-soundfonts 
% abcbook-repeats 1
%%text C part not always used.

